X: 16499
T: Hairy Chested Frog, The
R: reel
M: 4/4
K: Gmajor
dBcA G3 B|dBcA FGAB|dBcA GBdg|fdde fdcA:|
dg g2 dgbg|g2 bg fdcA|dg g2 dgag|fdcA FGAB|
dg g2 dg g2|dgag fdga|bg g2 gbag|fdcA FGAB|

